ic16/ic16__sidebar-expand.svg

<svg fill="none" height="16" width="16" xmlns="http://www.w3.org/2000/svg"><g clip-rule="evenodd" fill-rule="evenodd"><path d="m4.177 7.823 2.396-2.396a.25.25 0 0 1 .427.177v4.792a.25.25 0 0 1 -.427.177l-2.396-2.396a.25.25 0 0 1 0-.354z"/><path d="m0 1.75c0-.966.784-1.75 1.75-1.75h12.5c.966 0 1.75.784 1.75 1.75v12.5a1.75 1.75 0 0 1 -1.75 1.75h-12.5a1.75 1.75 0 0 1 -1.75-1.75zm1.75-.25a.25.25 0 0 0 -.25.25v12.5c0 .138.112.25.25.25h7.75v-13zm12.5 13h-3.25v-13h3.25a.25.25 0 0 1 .25.25v12.5a.25.25 0 0 1 -.25.25z"/></g></svg>

<svg width="16" height="16" viewBox="0 0 16 16" fill="none" xmlns="http://www.w3.org/2000/svg">
  <path fill-rule="evenodd" clip-rule="evenodd" d="M4.177 7.823l2.396-2.396A.25.25 0 017 5.604v4.792a.25.25 0 01-.427.177L4.177 8.177a.25.25 0 010-.354z" />
  <path fill-rule="evenodd" clip-rule="evenodd" d="M0 1.75C0 .784.784 0 1.75 0h12.5C15.216 0 16 .784 16 1.75v12.5A1.75 1.75 0 0114.25 16H1.75A1.75 1.75 0 010 14.25V1.75zm1.75-.25a.25.25 0 00-.25.25v12.5c0 .138.112.25.25.25H9.5v-13H1.75zm12.5 13H11v-13h3.25a.25.25 0 01.25.25v12.5a.25.25 0 01-.25.25z" />
</svg>
